dist/img/svg/pencil.svg

<svg width="21" height="21" viewBox="0 0 21 21" fill="none" xmlns="http://www.w3.org/2000/svg">
<path d="M14.3722 4.07068L4.30693 14.136C3.72313 14.7198 3.72313 15.6648 4.30693 16.2465C4.88863 16.8303 5.83573 16.8303 6.41743 16.2465L16.4827 6.18118L14.3722 4.07068ZM13.7947 3.49528L12.6754 2.37598C12.6439 2.39908 12.6145 2.42008 12.5851 2.44948L2.51983 12.5127C2.20693 12.8256 2.20693 13.3359 2.51983 13.6488C2.83273 13.9617 3.34303 13.9617 3.65593 13.6488L13.7212 3.58348C13.7506 3.55618 13.7716 3.52468 13.7947 3.49528ZM17.0371 6.73558C17.0056 6.75868 16.9762 6.77968 16.9468 6.80908L6.88363 16.8744C6.57073 17.1873 6.57073 17.6976 6.88363 18.0105C7.19653 18.3234 7.70683 18.3234 8.01973 18.0105L18.085 7.94518C18.1123 7.91788 18.1354 7.88638 18.1585 7.85698L17.0371 6.73558Z" fill="#368CBF"/>
<path d="M5.7393 17.71C2.5242 17.71 2.9841 14.9548 2.9841 14.9548C1.6065 14.9548 1.3776 14.0371 1.3776 14.0371L0 20.6941L6.888 19.0876C5.6028 18.8104 5.7393 17.71 5.7393 17.71Z" fill="#368CBF"/>
<path d="M19.9459 3.08332L17.4973 0.634725C16.6531 -0.211575 15.2818 -0.211575 14.4376 0.634725L13.375 1.69522L18.8833 7.20352L19.9438 6.14302C20.7922 5.29882 20.7922 3.92752 19.9459 3.08332Z" fill="#368CBF"/>
</svg>

<svg width="21" height="21" viewBox="0 0 21 21" fill="none" xmlns="http://www.w3.org/2000/svg"><path d="M14.372 4.07L4.307 14.137a1.49 1.49 0 000 2.11 1.49 1.49 0 002.11 0L16.483 6.182l-2.11-2.11zm-.577-.575l-1.12-1.119c-.031.023-.06.044-.09.073L2.52 12.513a.805.805 0 000 1.136.805.805 0 001.136 0L13.72 3.583c.03-.027.05-.058.074-.088zm3.242 3.24c-.031.024-.06.045-.09.074L6.884 16.874a.805.805 0 000 1.137.805.805 0 001.136 0L18.085 7.944c.027-.027.05-.059.073-.088l-1.12-1.121zM5.74 17.71c-3.216 0-2.756-2.755-2.756-2.755-1.377 0-1.606-.918-1.606-.918L0 20.694l6.888-1.606c-1.285-.278-1.149-1.378-1.149-1.378zM19.946 3.083L17.497.635a2.161 2.161 0 00-3.06 0l-1.062 1.06 5.508 5.509 1.06-1.061a2.16 2.16 0 00.003-3.06z" fill="#368CBF"/></svg>
